svgs/sharp-regular/austral-sign.svg

<svg xmlns="http://www.w3.org/2000/svg" viewBox="0 0 448 512"><!--! Font Awesome Pro 6.6.0 by @fontawesome - https://fontawesome.com License - https://fontawesome.com/license (Commercial License) Copyright 2024 Fonticons, Inc. --><path d="M199.7 32L216 32l16 0 16.3 0 6 15.2L324.4 224l99.6 0 24 0 0 48-24 0-80.6 0 19 48 61.6 0 24 0 0 48-24 0-42.6 0 40.9 103.2 3.5 8.8-51.6 0L329.8 368l-211.6 0L73.8 480l-51.6 0 3.5-8.8L66.6 368 24 368 0 368l0-48 24 0 61.6 0 19-48L24 272 0 272l0-48 24 0 99.6 0L193.7 47.2l6-15.2zM224 101L175.2 224l97.5 0L224 101zM137.2 320l173.6 0-19-48-135.5 0-19 48z"/></svg>

<svg xmlns="http://www.w3.org/2000/svg" viewBox="0 0 448 512"><!--! Font Awesome Pro 6.5.2 by @fontawesome - https://fontawesome.com License - https://fontawesome.com/license (Commercial License) Copyright 2024 Fonticons, Inc. --><path d="M199.7 32H216h16 16.3l6 15.2L324.4 224H424h24v48H424 343.4l19 48H424h24v48H424 381.4l40.9 103.2 3.5 8.8H374.2L329.8 368H118.2L73.8 480H22.2l3.5-8.8L66.6 368H24 0V320H24 85.6l19-48H24 0V224H24h99.6L193.7 47.2l6-15.2zM224 101L175.2 224h97.5L224 101zM137.2 320H310.8l-19-48H156.2l-19 48z"/></svg>
